assets/lut/lut_steep.cube
TITLE "cetra steep s-curve"
LUT_3D_SIZE 33
DOMAIN_MIN 0.0 0.0 0.0
DOMAIN_MAX 1.0 1.0 1.0
0.000000 0.000000 0.000000
0.000006 0.000000 0.000000
0.000093 0.000000 0.000003
0.000454 0.000000 0.000016
0.001383 0.000000 0.000051
0.003247 0.000000 0.000122
0.006462 0.000000 0.000249
0.011464 0.000000 0.000454
0.018690 0.000000 0.000763
0.028552 0.000000 0.001202
0.041419 0.000000 0.001803
0.057602 0.000000 0.002596
0.077334 0.000000 0.003614
0.100769 0.000000 0.004891
0.127967 0.000000 0.006462
0.158893 0.000000 0.008361
0.193417 0.000000 0.010623
0.231314 0.000000 0.013283
0.272272 0.000000 0.016374
0.315898 0.000000 0.019928
0.361730 0.000000 0.023978
0.409244 0.000000 0.028552
0.457877 0.000000 0.033679
0.507031 0.000000 0.039385
0.556098 0.000000 0.045693
0.604471 0.000000 0.052625
0.651560 0.000000 0.060199
0.696813 0.000000 0.068431
0.739721 0.000000 0.077334
0.779841 0.000000 0.086919
0.816803 0.000000 0.097191
0.850317 0.000000 0.108156
0.880187 0.000000 0.119813
0.000000 0.000006 0.000000
0.000025 0.000006 0.000000
0.000199 0.000006 0.000003
0.000763 0.000006 0.000016
0.002044 0.000006 0.000051
0.004434 0.000006 0.000122
0.008361 0.000006 0.000249
0.014264 0.000006 0.000454
0.022571 0.000006 0.000763
0.033679 0.000006 0.001202
0.047933 0.000006 0.001803
0.065613 0.000006 0.002596
0.086919 0.000006 0.003614
0.111965 0.000006 0.004891
0.140770 0.000006 0.006462
0.173259 0.000006 0.008361
0.209262 0.000006 0.010623
0.248514 0.000006 0.013283
0.290668 0.000006 0.016374
0.335300 0.000006 0.019928
0.381919 0.000006 0.023978
0.429984 0.000006 0.028552
0.478914 0.000006 0.033679
0.528106 0.000006 0.039385
0.576949 0.000006 0.045693
0.624842 0.000006 0.052625
0.671210 0.000006 0.060199
0.715516 0.000006 0.068431
0.757280 0.000006 0.077334
0.796088 0.000006 0.086919
0.831602 0.000006 0.097191
0.863573 0.000006 0.108156
0.891844 0.000006 0.119813
0.000003 0.000093 0.000000
0.000069 0.000093 0.000000
0.000376 0.000093 0.000003
0.001202 0.000093 0.000016
0.002908 0.000093 0.000051
0.005903 0.000093 0.000122
0.010623 0.000093 0.000249
0.017506 0.000093 0.000454
0.026967 0.000093 0.000763
0.039385 0.000093 0.001202
0.055077 0.000093 0.001803
0.074291 0.000093 0.002596
0.097191 0.000093 0.003614
0.123852 0.000093 0.004891
0.154251 0.000093 0.006462
0.188272 0.000093 0.008361
0.225704 0.000093 0.010623
0.266248 0.000093 0.013283
0.309520 0.000093 0.016374
0.355067 0.000093 0.019928
0.402375 0.000093 0.023978
0.450883 0.000093 0.028552
0.500000 0.000093 0.033679
0.549117 0.000093 0.039385
0.597625 0.000093 0.045693
0.644933 0.000093 0.052625
0.690480 0.000093 0.060199
0.733752 0.000093 0.068431
0.774296 0.000093 0.077334
0.811728 0.000093 0.086919
0.845749 0.000093 0.097191
0.876148 0.000093 0.108156
0.902809 0.000093 0.119813
0.000016 0.000454 0.000000
0.000157 0.000454 0.000000
0.000647 0.000454 0.000003
0.001803 0.000454 0.000016
0.004009 0.000454 0.000051
0.007689 0.000454 0.000122
0.013283 0.000454 0.000249
0.021222 0.000454 0.000454
0.031907 0.000454 0.000763
0.045693 0.000454 0.001202
0.062869 0.000454 0.001803
0.083648 0.000454 0.002596
0.108156 0.000454 0.003614
0.136427 0.000454 0.004891
0.168398 0.000454 0.006462
0.203912 0.000454 0.008361
0.242720 0.000454 0.010623
0.284484 0.000454 0.013283
0.328790 0.000454 0.016374
0.375158 0.000454 0.019928
0.423051 0.000454 0.023978
0.471894 0.000454 0.028552
0.521086 0.000454 0.033679
0.570016 0.000454 0.039385
0.618081 0.000454 0.045693
0.664700 0.000454 0.052625
0.709332 0.000454 0.060199
0.751486 0.000454 0.068431
0.790738 0.000454 0.077334
0.826741 0.000454 0.086919
0.859230 0.000454 0.097191
0.888035 0.000454 0.108156
0.913081 0.000454 0.119813
0.000051 0.001383 0.000000
0.000307 0.001383 0.000000
0.001040 0.001383 0.000003
0.002596 0.001383 0.000016
0.005380 0.001383 0.000051
0.009827 0.001383 0.000122
0.016374 0.001383 0.000249
0.025443 0.001383 0.000454
0.037417 0.001383 0.000763
0.052625 0.001383 0.001202
0.071324 0.001383 0.001803
0.093690 0.001383 0.002596
0.119813 0.001383 0.003614
0.149683 0.001383 0.004891
0.183197 0.001383 0.006462
0.220159 0.001383 0.008361
0.260279 0.001383 0.010623
0.303187 0.001383 0.013283
0.348440 0.001383 0.016374
0.395529 0.001383 0.019928
0.443902 0.001383 0.023978
0.492969 0.001383 0.028552
0.542123 0.001383 0.033679
0.590756 0.001383 0.039385
0.638270 0.001383 0.045693
0.684102 0.001383 0.052625
0.727728 0.001383 0.060199
0.768686 0.001383 0.068431
0.806583 0.001383 0.077334
0.841107 0.001383 0.086919
0.872033 0.001383 0.097191
0.899231 0.001383 0.108156
0.922666 0.001383 0.119813
0.000122 0.003247 0.000000
0.000544 0.003247 0.000000
0.001583 0.003247 0.000003
0.003614 0.003247 0.000016
0.007057 0.003247 0.000051
0.012350 0.003247 0.000122
0.019928 0.003247 0.000249
0.030198 0.003247 0.000454
0.043522 0.003247 0.000763
0.060199 0.003247 0.001202
0.080453 0.003247 0.001803
0.104424 0.003247 0.002596
0.132159 0.003247 0.003614
0.163609 0.003247 0.004891
0.198631 0.003247 0.006462
0.236986 0.003247 0.008361
0.278351 0.003247 0.010623
0.322322 0.003247 0.013283
0.368427 0.003247 0.016374
0.416137 0.003247 0.019928
0.464881 0.003247 0.023978
0.514060 0.003247 0.028552
0.563065 0.003247 0.033679
0.611290 0.003247 0.039385
0.658150 0.003247 0.045693
0.703097 0.003247 0.052625
0.745633 0.003247 0.060199
0.785323 0.003247 0.068431
0.821807 0.003247 0.077334
0.854811 0.003247 0.086919
0.884150 0.003247 0.097191
0.909734 0.003247 0.108156
0.931569 0.003247 0.119813
0.000249 0.006462 0.000000
0.000893 0.006462 0.000000
0.002308 0.006462 0.000003
0.004891 0.006462 0.000016
0.009073 0.006462 0.000051
0.015294 0.006462 0.000122
0.023978 0.006462 0.000249
0.035515 0.006462 0.000454
0.050244 0.006462 0.000763
0.068431 0.006462 0.001202
0.090266 0.006462 0.001803
0.115850 0.006462 0.002596
0.145189 0.006462 0.003614
0.178193 0.006462 0.004891
0.214677 0.006462 0.006462
0.254367 0.006462 0.008361
0.296903 0.006462 0.010623
0.341850 0.006462 0.013283
0.388710 0.006462 0.016374
0.436935 0.006462 0.019928
0.485940 0.006462 0.023978
0.535119 0.006462 0.028552
0.583863 0.006462 0.033679
0.631573 0.006462 0.039385
0.677678 0.006462 0.045693
0.721649 0.006462 0.052625
0.763014 0.006462 0.060199
0.801369 0.006462 0.068431
0.836391 0.006462 0.077334
0.867841 0.006462 0.086919
0.895576 0.006462 0.097191
0.919547 0.006462 0.108156
0.939801 0.006462 0.119813
0.000454 0.011464 0.000000
0.001383 0.011464 0.000000
0.003247 0.011464 0.000003
0.006462 0.011464 0.000016
0.011464 0.011464 0.000051
0.018690 0.011464 0.000122
0.028552 0.011464 0.000249
0.041419 0.011464 0.000454
0.057602 0.011464 0.000763
0.077334 0.011464 0.001202
0.100769 0.011464 0.001803
0.127967 0.011464 0.002596
0.158893 0.011464 0.003614
0.193417 0.011464 0.004891
0.231314 0.011464 0.006462
0.272272 0.011464 0.008361
0.315898 0.011464 0.010623
0.361730 0.011464 0.013283
0.409244 0.011464 0.016374
0.457877 0.011464 0.019928
0.507031 0.011464 0.023978
0.556098 0.011464 0.028552
0.604471 0.011464 0.033679
0.651560 0.011464 0.039385
0.696813 0.011464 0.045693
0.739721 0.011464 0.052625
0.779841 0.011464 0.060199
0.816803 0.011464 0.068431
0.850317 0.011464 0.077334
0.880187 0.011464 0.086919
0.906310 0.011464 0.097191
0.928676 0.011464 0.108156
0.947375 0.011464 0.119813
0.000763 0.018690 0.000000
0.002044 0.018690 0.000000
0.004434 0.018690 0.000003
0.008361 0.018690 0.000016
0.014264 0.018690 0.000051
0.022571 0.018690 0.000122
0.033679 0.018690 0.000249
0.047933 0.018690 0.000454
0.065613 0.018690 0.000763
0.086919 0.018690 0.001202
0.111965 0.018690 0.001803
0.140770 0.018690 0.002596
0.173259 0.018690 0.003614
0.209262 0.018690 0.004891
0.248514 0.018690 0.006462
0.290668 0.018690 0.008361
0.335300 0.018690 0.010623
0.381919 0.018690 0.013283
0.429984 0.018690 0.016374
0.478914 0.018690 0.019928
0.528106 0.018690 0.023978
0.576949 0.018690 0.028552
0.624842 0.018690 0.033679
0.671210 0.018690 0.039385
0.715516 0.018690 0.045693
0.757280 0.018690 0.052625
0.796088 0.018690 0.060199
0.831602 0.018690 0.068431
0.863573 0.018690 0.077334
0.891844 0.018690 0.086919
0.916352 0.018690 0.097191
0.937131 0.018690 0.108156
0.954307 0.018690 0.119813
0.001202 0.028552 0.000000
0.002908 0.028552 0.000000
0.005903 0.028552 0.000003
0.010623 0.028552 0.000016
0.017506 0.028552 0.000051
0.026967 0.028552 0.000122
0.039385 0.028552 0.000249
0.055077 0.028552 0.000454
0.074291 0.028552 0.000763
0.097191 0.028552 0.001202
0.123852 0.028552 0.001803
0.154251 0.028552 0.002596
0.188272 0.028552 0.003614
0.225704 0.028552 0.004891
0.266248 0.028552 0.006462
0.309520 0.028552 0.008361
0.355067 0.028552 0.010623
0.402375 0.028552 0.013283
0.450883 0.028552 0.016374
0.500000 0.028552 0.019928
0.549117 0.028552 0.023978
0.597625 0.028552 0.028552
0.644933 0.028552 0.033679
0.690480 0.028552 0.039385
0.733752 0.028552 0.045693
0.774296 0.028552 0.052625
0.811728 0.028552 0.060199
0.845749 0.028552 0.068431
0.876148 0.028552 0.077334
0.902809 0.028552 0.086919
0.925709 0.028552 0.097191
0.944923 0.028552 0.108156
0.960615 0.028552 0.119813
0.001803 0.041419 0.000000
0.004009 0.041419 0.000000
0.007689 0.041419 0.000003
0.013283 0.041419 0.000016
0.021222 0.041419 0.000051
0.031907 0.041419 0.000122
0.045693 0.041419 0.000249
0.062869 0.041419 0.000454
0.083648 0.041419 0.000763
0.108156 0.041419 0.001202
0.136427 0.041419 0.001803
0.168398 0.041419 0.002596
0.203912 0.041419 0.003614
0.242720 0.041419 0.004891
0.284484 0.041419 0.006462
0.328790 0.041419 0.008361
0.375158 0.041419 0.010623
0.423051 0.041419 0.013283
0.471894 0.041419 0.016374
0.521086 0.041419 0.019928
0.570016 0.041419 0.023978
0.618081 0.041419 0.028552
0.664700 0.041419 0.033679
0.709332 0.041419 0.039385
0.751486 0.041419 0.045693
0.790738 0.041419 0.052625
0.826741 0.041419 0.060199
0.859230 0.041419 0.068431
0.888035 0.041419 0.077334
0.913081 0.041419 0.086919
0.934387 0.041419 0.097191
0.952067 0.041419 0.108156
0.966321 0.041419 0.119813
0.002596 0.057602 0.000000
0.005380 0.057602 0.000000
0.009827 0.057602 0.000003
0.016374 0.057602 0.000016
0.025443 0.057602 0.000051
0.037417 0.057602 0.000122
0.052625 0.057602 0.000249
0.071324 0.057602 0.000454
0.093690 0.057602 0.000763
0.119813 0.057602 0.001202
0.149683 0.057602 0.001803
0.183197 0.057602 0.002596
0.220159 0.057602 0.003614
0.260279 0.057602 0.004891
0.303187 0.057602 0.006462
0.348440 0.057602 0.008361
0.395529 0.057602 0.010623
0.443902 0.057602 0.013283
0.492969 0.057602 0.016374
0.542123 0.057602 0.019928
0.590756 0.057602 0.023978
0.638270 0.057602 0.028552
0.684102 0.057602 0.033679
0.727728 0.057602 0.039385
0.768686 0.057602 0.045693
0.806583 0.057602 0.052625
0.841107 0.057602 0.060199
0.872033 0.057602 0.068431
0.899231 0.057602 0.077334
0.922666 0.057602 0.086919
0.942398 0.057602 0.097191
0.958581 0.057602 0.108156
0.971448 0.057602 0.119813
0.003614 0.077334 0.000000
0.007057 0.077334 0.000000
0.012350 0.077334 0.000003
0.019928 0.077334 0.000016
0.030198 0.077334 0.000051
0.043522 0.077334 0.000122
0.060199 0.077334 0.000249
0.080453 0.077334 0.000454
0.104424 0.077334 0.000763
0.132159 0.077334 0.001202
0.163609 0.077334 0.001803
0.198631 0.077334 0.002596
0.236986 0.077334 0.003614
0.278351 0.077334 0.004891
0.322322 0.077334 0.006462
0.368427 0.077334 0.008361
0.416137 0.077334 0.010623
0.464881 0.077334 0.013283
0.514060 0.077334 0.016374
0.563065 0.077334 0.019928
0.611290 0.077334 0.023978
0.658150 0.077334 0.028552
0.703097 0.077334 0.033679
0.745633 0.077334 0.039385
0.785323 0.077334 0.045693
0.821807 0.077334 0.052625
0.854811 0.077334 0.060199
0.884150 0.077334 0.068431
0.909734 0.077334 0.077334
0.931569 0.077334 0.086919
0.949756 0.077334 0.097191
0.964485 0.077334 0.108156
0.976022 0.077334 0.119813
0.004891 0.100769 0.000000
0.009073 0.100769 0.000000
0.015294 0.100769 0.000003
0.023978 0.100769 0.000016
0.035515 0.100769 0.000051
0.050244 0.100769 0.000122
0.068431 0.100769 0.000249
0.090266 0.100769 0.000454
0.115850 0.100769 0.000763
0.145189 0.100769 0.001202
0.178193 0.100769 0.001803
0.214677 0.100769 0.002596
0.254367 0.100769 0.003614
0.296903 0.100769 0.004891
0.341850 0.100769 0.006462
0.388710 0.100769 0.008361
0.436935 0.100769 0.010623
0.485940 0.100769 0.013283
0.535119 0.100769 0.016374
0.583863 0.100769 0.019928
0.631573 0.100769 0.023978
0.677678 0.100769 0.028552
0.721649 0.100769 0.033679
0.763014 0.100769 0.039385
0.801369 0.100769 0.045693
0.836391 0.100769 0.052625
0.867841 0.100769 0.060199
0.895576 0.100769 0.068431
0.919547 0.100769 0.077334
0.939801 0.100769 0.086919
0.956478 0.100769 0.097191
0.969802 0.100769 0.108156
0.980072 0.100769 0.119813
0.006462 0.127967 0.000000
0.011464 0.127967 0.000000
0.018690 0.127967 0.000003
0.028552 0.127967 0.000016
0.041419 0.127967 0.000051
0.057602 0.127967 0.000122
0.077334 0.127967 0.000249
0.100769 0.127967 0.000454
0.127967 0.127967 0.000763
0.158893 0.127967 0.001202
0.193417 0.127967 0.001803
0.231314 0.127967 0.002596
0.272272 0.127967 0.003614
0.315898 0.127967 0.004891
0.361730 0.127967 0.006462
0.409244 0.127967 0.008361
0.457877 0.127967 0.010623
0.507031 0.127967 0.013283
0.556098 0.127967 0.016374
0.604471 0.127967 0.019928
0.651560 0.127967 0.023978
0.696813 0.127967 0.028552
0.739721 0.127967 0.033679
0.779841 0.127967 0.039385
0.816803 0.127967 0.045693
0.850317 0.127967 0.052625
0.880187 0.127967 0.060199
0.906310 0.127967 0.068431
0.928676 0.127967 0.077334
0.947375 0.127967 0.086919
0.962583 0.127967 0.097191
0.974557 0.127967 0.108156
0.983626 0.127967 0.119813
0.008361 0.158893 0.000000
0.014264 0.158893 0.000000
0.022571 0.158893 0.000003
0.033679 0.158893 0.000016
0.047933 0.158893 0.000051
0.065613 0.158893 0.000122
0.086919 0.158893 0.000249
0.111965 0.158893 0.000454
0.140770 0.158893 0.000763
0.173259 0.158893 0.001202
0.209262 0.158893 0.001803
0.248514 0.158893 0.002596
0.290668 0.158893 0.003614
0.335300 0.158893 0.004891
0.381919 0.158893 0.006462
0.429984 0.158893 0.008361
0.478914 0.158893 0.010623
0.528106 0.158893 0.013283
0.576949 0.158893 0.016374
0.624842 0.158893 0.019928
0.671210 0.158893 0.023978
0.715516 0.158893 0.028552
0.757280 0.158893 0.033679
0.796088 0.158893 0.039385
0.831602 0.158893 0.045693
0.863573 0.158893 0.052625
0.891844 0.158893 0.060199
0.916352 0.158893 0.068431
0.937131 0.158893 0.077334
0.954307 0.158893 0.086919
0.968093 0.158893 0.097191
0.978778 0.158893 0.108156
0.986717 0.158893 0.119813
0.010623 0.193417 0.000000
0.017506 0.193417 0.000000
0.026967 0.193417 0.000003
0.039385 0.193417 0.000016
0.055077 0.193417 0.000051
0.074291 0.193417 0.000122
0.097191 0.193417 0.000249
0.123852 0.193417 0.000454
0.154251 0.193417 0.000763
0.188272 0.193417 0.001202
0.225704 0.193417 0.001803
0.266248 0.193417 0.002596
0.309520 0.193417 0.003614
0.355067 0.193417 0.004891
0.402375 0.193417 0.006462
0.450883 0.193417 0.008361
0.500000 0.193417 0.010623
0.549117 0.193417 0.013283
0.597625 0.193417 0.016374
0.644933 0.193417 0.019928
0.690480 0.193417 0.023978
0.733752 0.193417 0.028552
0.774296 0.193417 0.033679
0.811728 0.193417 0.039385
0.845749 0.193417 0.045693
0.876148 0.193417 0.052625
0.902809 0.193417 0.060199
0.925709 0.193417 0.068431
0.944923 0.193417 0.077334
0.960615 0.193417 0.086919
0.973033 0.193417 0.097191
0.982494 0.193417 0.108156
0.989377 0.193417 0.119813
0.013283 0.231314 0.000000
0.021222 0.231314 0.000000
0.031907 0.231314 0.000003
0.045693 0.231314 0.000016
0.062869 0.231314 0.000051
0.083648 0.231314 0.000122
0.108156 0.231314 0.000249
0.136427 0.231314 0.000454
0.168398 0.231314 0.000763
0.203912 0.231314 0.001202
0.242720 0.231314 0.001803
0.284484 0.231314 0.002596
0.328790 0.231314 0.003614
0.375158 0.231314 0.004891
0.423051 0.231314 0.006462
0.471894 0.231314 0.008361
0.521086 0.231314 0.010623
0.570016 0.231314 0.013283
0.618081 0.231314 0.016374
0.664700 0.231314 0.019928
0.709332 0.231314 0.023978
0.751486 0.231314 0.028552
0.790738 0.231314 0.033679
0.826741 0.231314 0.039385
0.859230 0.231314 0.045693
0.888035 0.231314 0.052625
0.913081 0.231314 0.060199
0.934387 0.231314 0.068431
0.952067 0.231314 0.077334
0.966321 0.231314 0.086919
0.977429 0.231314 0.097191
0.985736 0.231314 0.108156
0.991639 0.231314 0.119813
0.016374 0.272272 0.000000
0.025443 0.272272 0.000000
0.037417 0.272272 0.000003
0.052625 0.272272 0.000016
0.071324 0.272272 0.000051
0.093690 0.272272 0.000122
0.119813 0.272272 0.000249
0.149683 0.272272 0.000454
0.183197 0.272272 0.000763
0.220159 0.272272 0.001202
0.260279 0.272272 0.001803
0.303187 0.272272 0.002596
0.348440 0.272272 0.003614
0.395529 0.272272 0.004891
0.443902 0.272272 0.006462
0.492969 0.272272 0.008361
0.542123 0.272272 0.010623
0.590756 0.272272 0.013283
0.638270 0.272272 0.016374
0.684102 0.272272 0.019928
0.727728 0.272272 0.023978
0.768686 0.272272 0.028552
0.806583 0.272272 0.033679
0.841107 0.272272 0.039385
0.872033 0.272272 0.045693
0.899231 0.272272 0.052625
0.922666 0.272272 0.060199
0.942398 0.272272 0.068431
0.958581 0.272272 0.077334
0.971448 0.272272 0.086919
0.981310 0.272272 0.097191
0.988536 0.272272 0.108156
0.993538 0.272272 0.119813
0.019928 0.315898 0.000000
0.030198 0.315898 0.000000
0.043522 0.315898 0.000003
0.060199 0.315898 0.000016
0.080453 0.315898 0.000051
0.104424 0.315898 0.000122
0.132159 0.315898 0.000249
0.163609 0.315898 0.000454
0.198631 0.315898 0.000763
0.236986 0.315898 0.001202
0.278351 0.315898 0.001803
0.322322 0.315898 0.002596
0.368427 0.315898 0.003614
0.416137 0.315898 0.004891
0.464881 0.315898 0.006462
0.514060 0.315898 0.008361
0.563065 0.315898 0.010623
0.611290 0.315898 0.013283
0.658150 0.315898 0.016374
0.703097 0.315898 0.019928
0.745633 0.315898 0.023978
0.785323 0.315898 0.028552
0.821807 0.315898 0.033679
0.854811 0.315898 0.039385
0.884150 0.315898 0.045693
0.909734 0.315898 0.052625
0.931569 0.315898 0.060199
0.949756 0.315898 0.068431
0.964485 0.315898 0.077334
0.976022 0.315898 0.086919
0.984706 0.315898 0.097191
0.990927 0.315898 0.108156
0.995109 0.315898 0.119813
0.023978 0.361730 0.000000
0.035515 0.361730 0.000000
0.050244 0.361730 0.000003
0.068431 0.361730 0.000016
0.090266 0.361730 0.000051
0.115850 0.361730 0.000122
0.145189 0.361730 0.000249
0.178193 0.361730 0.000454
0.214677 0.361730 0.000763
0.254367 0.361730 0.001202
0.296903 0.361730 0.001803
0.341850 0.361730 0.002596
0.388710 0.361730 0.003614
0.436935 0.361730 0.004891
0.485940 0.361730 0.006462
0.535119 0.361730 0.008361
0.583863 0.361730 0.010623
0.631573 0.361730 0.013283
0.677678 0.361730 0.016374
0.721649 0.361730 0.019928
0.763014 0.361730 0.023978
0.801369 0.361730 0.028552
0.836391 0.361730 0.033679
0.867841 0.361730 0.039385
0.895576 0.361730 0.045693
0.919547 0.361730 0.052625
0.939801 0.361730 0.060199
0.956478 0.361730 0.068431
0.969802 0.361730 0.077334
0.980072 0.361730 0.086919
0.987650 0.361730 0.097191
0.992943 0.361730 0.108156
0.996386 0.361730 0.119813
0.028552 0.409244 0.000000
0.041419 0.409244 0.000000
0.057602 0.409244 0.000003
0.077334 0.409244 0.000016
0.100769 0.409244 0.000051
0.127967 0.409244 0.000122
0.158893 0.409244 0.000249
0.193417 0.409244 0.000454
0.231314 0.409244 0.000763
0.272272 0.409244 0.001202
0.315898 0.409244 0.001803
0.361730 0.409244 0.002596
0.409244 0.409244 0.003614
0.457877 0.409244 0.004891
0.507031 0.409244 0.006462
0.556098 0.409244 0.008361
0.604471 0.409244 0.010623
0.651560 0.409244 0.013283
0.696813 0.409244 0.016374
0.739721 0.409244 0.019928
0.779841 0.409244 0.023978
0.816803 0.409244 0.028552
0.850317 0.409244 0.033679
0.880187 0.409244 0.039385
0.906310 0.409244 0.045693
0.928676 0.409244 0.052625
0.947375 0.409244 0.060199
0.962583 0.409244 0.068431
0.974557 0.409244 0.077334
0.983626 0.409244 0.086919
0.990173 0.409244 0.097191
0.994620 0.409244 0.108156
0.997404 0.409244 0.119813
0.033679 0.457877 0.000000
0.047933 0.457877 0.000000
0.065613 0.457877 0.000003
0.086919 0.457877 0.000016
0.111965 0.457877 0.000051
0.140770 0.457877 0.000122
0.173259 0.457877 0.000249
0.209262 0.457877 0.000454
0.248514 0.457877 0.000763
0.290668 0.457877 0.001202
0.335300 0.457877 0.001803
0.381919 0.457877 0.002596
0.429984 0.457877 0.003614
0.478914 0.457877 0.004891
0.528106 0.457877 0.006462
0.576949 0.457877 0.008361
0.624842 0.457877 0.010623
0.671210 0.457877 0.013283
0.715516 0.457877 0.016374
0.757280 0.457877 0.019928
0.796088 0.457877 0.023978
0.831602 0.457877 0.028552
0.863573 0.457877 0.033679
0.891844 0.457877 0.039385
0.916352 0.457877 0.045693
0.937131 0.457877 0.052625
0.954307 0.457877 0.060199
0.968093 0.457877 0.068431
0.978778 0.457877 0.077334
0.986717 0.457877 0.086919
0.992311 0.457877 0.097191
0.995991 0.457877 0.108156
0.998197 0.457877 0.119813
0.039385 0.507031 0.000000
0.055077 0.507031 0.000000
0.074291 0.507031 0.000003
0.097191 0.507031 0.000016
0.123852 0.507031 0.000051
0.154251 0.507031 0.000122
0.188272 0.507031 0.000249
0.225704 0.507031 0.000454
0.266248 0.507031 0.000763
0.309520 0.507031 0.001202
0.355067 0.507031 0.001803
0.402375 0.507031 0.002596
0.450883 0.507031 0.003614
0.500000 0.507031 0.004891
0.549117 0.507031 0.006462
0.597625 0.507031 0.008361
0.644933 0.507031 0.010623
0.690480 0.507031 0.013283
0.733752 0.507031 0.016374
0.774296 0.507031 0.019928
0.811728 0.507031 0.023978
0.845749 0.507031 0.028552
0.876148 0.507031 0.033679
0.902809 0.507031 0.039385
0.925709 0.507031 0.045693
0.944923 0.507031 0.052625
0.960615 0.507031 0.060199
0.973033 0.507031 0.068431
0.982494 0.507031 0.077334
0.989377 0.507031 0.086919
0.994097 0.507031 0.097191
0.997092 0.507031 0.108156
0.998798 0.507031 0.119813
0.045693 0.556098 0.000000
0.062869 0.556098 0.000000
0.083648 0.556098 0.000003
0.108156 0.556098 0.000016
0.136427 0.556098 0.000051
0.168398 0.556098 0.000122
0.203912 0.556098 0.000249
0.242720 0.556098 0.000454
0.284484 0.556098 0.000763
0.328790 0.556098 0.001202
0.375158 0.556098 0.001803
0.423051 0.556098 0.002596
0.471894 0.556098 0.003614
0.521086 0.556098 0.004891
0.570016 0.556098 0.006462
0.618081 0.556098 0.008361
0.664700 0.556098 0.010623
0.709332 0.556098 0.013283
0.751486 0.556098 0.016374
0.790738 0.556098 0.019928
0.826741 0.556098 0.023978
0.859230 0.556098 0.028552
0.888035 0.556098 0.033679
0.913081 0.556098 0.039385
0.934387 0.556098 0.045693
0.952067 0.556098 0.052625
0.966321 0.556098 0.060199
0.977429 0.556098 0.068431
0.985736 0.556098 0.077334
0.991639 0.556098 0.086919
0.995566 0.556098 0.097191
0.997956 0.556098 0.108156
0.999237 0.556098 0.119813
0.052625 0.604471 0.000000
0.071324 0.604471 0.000000
0.093690 0.604471 0.000003
0.119813 0.604471 0.000016
0.149683 0.604471 0.000051
0.183197 0.604471 0.000122
0.220159 0.604471 0.000249
0.260279 0.604471 0.000454
0.303187 0.604471 0.000763
0.348440 0.604471 0.001202
0.395529 0.604471 0.001803
0.443902 0.604471 0.002596
0.492969 0.604471 0.003614
0.542123 0.604471 0.004891
0.590756 0.604471 0.006462
0.638270 0.604471 0.008361
0.684102 0.604471 0.010623
0.727728 0.604471 0.013283
0.768686 0.604471 0.016374
0.806583 0.604471 0.019928
0.841107 0.604471 0.023978
0.872033 0.604471 0.028552
0.899231 0.604471 0.033679
0.922666 0.604471 0.039385
0.942398 0.604471 0.045693
0.958581 0.604471 0.052625
0.971448 0.604471 0.060199
0.981310 0.604471 0.068431
0.988536 0.604471 0.077334
0.993538 0.604471 0.086919
0.996753 0.604471 0.097191
0.998617 0.604471 0.108156
0.999546 0.604471 0.119813
0.060199 0.651560 0.000000
0.080453 0.651560 0.000000
0.104424 0.651560 0.000003
0.132159 0.651560 0.000016
0.163609 0.651560 0.000051
0.198631 0.651560 0.000122
0.236986 0.651560 0.000249
0.278351 0.651560 0.000454
0.322322 0.651560 0.000763
0.368427 0.651560 0.001202
0.416137 0.651560 0.001803
0.464881 0.651560 0.002596
0.514060 0.651560 0.003614
0.563065 0.651560 0.004891
0.611290 0.651560 0.006462
0.658150 0.651560 0.008361
0.703097 0.651560 0.010623
0.745633 0.651560 0.013283
0.785323 0.651560 0.016374
0.821807 0.651560 0.019928
0.854811 0.651560 0.023978
0.884150 0.651560 0.028552
0.909734 0.651560 0.033679
0.931569 0.651560 0.039385
0.949756 0.651560 0.045693
0.964485 0.651560 0.052625
0.976022 0.651560 0.060199
