assets/lut/lut_steep.cube
TITLE "cetra steep s-curve"
LUT_3D_SIZE 9
DOMAIN_MIN 0.0 0.0 0.0
DOMAIN_MAX 1.0 1.0 1.0
0.000000 0.000000 0.000000
0.001383 0.000000 0.000051
0.018690 0.000000 0.000763
0.077334 0.000000 0.003614
0.193417 0.000000 0.010623
0.361730 0.000000 0.023978
0.556098 0.000000 0.045693
0.739721 0.000000 0.077334
0.880187 0.000000 0.119813
0.000051 0.001383 0.000000
0.005380 0.001383 0.000051
0.037417 0.001383 0.000763
0.119813 0.001383 0.003614
0.260279 0.001383 0.010623
0.443902 0.001383 0.023978
0.638270 0.001383 0.045693
0.806583 0.001383 0.077334
0.922666 0.001383 0.119813
0.000763 0.018690 0.000000
0.014264 0.018690 0.000051
0.065613 0.018690 0.000763
0.173259 0.018690 0.003614
0.335300 0.018690 0.010623
0.528106 0.018690 0.023978
0.715516 0.018690 0.045693
0.863573 0.018690 0.077334
0.954307 0.018690 0.119813
0.003614 0.077334 0.000000
0.030198 0.077334 0.000051
0.104424 0.077334 0.000763
0.236986 0.077334 0.003614
0.416137 0.077334 0.010623
0.611290 0.077334 0.023978
0.785323 0.077334 0.045693
0.909734 0.077334 0.077334
0.976022 0.077334 0.119813
0.010623 0.193417 0.000000
0.055077 0.193417 0.000051
0.154251 0.193417 0.000763
0.309520 0.193417 0.003614
0.500000 0.193417 0.010623
0.690480 0.193417 0.023978
0.845749 0.193417 0.045693
0.944923 0.193417 0.077334
0.989377 0.193417 0.119813
0.023978 0.361730 0.000000
0.090266 0.361730 0.000051
0.214677 0.361730 0.000763
0.388710 0.361730 0.003614
0.583863 0.361730 0.010623
0.763014 0.361730 0.023978
0.895576 0.361730 0.045693
0.969802 0.361730 0.077334
0.996386 0.361730 0.119813
0.045693 0.556098 0.000000
0.136427 0.556098 0.000051
0.284484 0.556098 0.000763
0.471894 0.556098 0.003614
0.664700 0.556098 0.010623
0.826741 0.556098 0.023978
0.934387 0.556098 0.045693
0.985736 0.556098 0.077334
0.999237 0.556098 0.119813
0.077334 0.739721 0.000000
0.193417 0.739721 0.000051
0.361730 0.739721 0.000763
0.556098 0.739721 0.003614
0.739721 0.739721 0.010623
0.880187 0.739721 0.023978
0.962583 0.739721 0.045693
0.994620 0.739721 0.077334
0.999949 0.739721 0.119813
0.119813 0.880187 0.000000
0.260279 0.880187 0.000051
0.443902 0.880187 0.000763
0.638270 0.880187 0.003614
0.806583 0.880187 0.010623
0.922666 0.880187 0.023978
0.981310 0.880187 0.045693
0.998617 0.880187 0.077334
1.000000 0.880187 0.119813
0.000000 0.000051 0.001383
0.001383 0.000051 0.005380
0.018690 0.000051 0.014264
0.077334 0.000051 0.030198
0.193417 0.000051 0.055077
0.361730 0.000051 0.090266
0.556098 0.000051 0.136427
0.739721 0.000051 0.193417
0.880187 0.000051 0.260279
0.000051 0.005380 0.001383
0.005380 0.005380 0.005380
0.037417 0.005380 0.014264
0.119813 0.005380 0.030198
0.260279 0.005380 0.055077
0.443902 0.005380 0.090266
0.638270 0.005380 0.136427
0.806583 0.005380 0.193417
0.922666 0.005380 0.260279
0.000763 0.037417 0.001383
0.014264 0.037417 0.005380
0.065613 0.037417 0.014264
0.173259 0.037417 0.030198
0.335300 0.037417 0.055077
0.528106 0.037417 0.090266
0.715516 0.037417 0.136427
0.863573 0.037417 0.193417
0.954307 0.037417 0.260279
0.003614 0.119813 0.001383
0.030198 0.119813 0.005380
0.104424 0.119813 0.014264
0.236986 0.119813 0.030198
0.416137 0.119813 0.055077
0.611290 0.119813 0.090266
0.785323 0.119813 0.136427
0.909734 0.119813 0.193417
0.976022 0.119813 0.260279
0.010623 0.260279 0.001383
0.055077 0.260279 0.005380
0.154251 0.260279 0.014264
0.309520 0.260279 0.030198
0.500000 0.260279 0.055077
0.690480 0.260279 0.090266
0.845749 0.260279 0.136427
0.944923 0.260279 0.193417
0.989377 0.260279 0.260279
0.023978 0.443902 0.001383
0.090266 0.443902 0.005380
0.214677 0.443902 0.014264
0.388710 0.443902 0.030198
0.583863 0.443902 0.055077
0.763014 0.443902 0.090266
0.895576 0.443902 0.136427
0.969802 0.443902 0.193417
0.996386 0.443902 0.260279
0.045693 0.638270 0.001383
0.136427 0.638270 0.005380
0.284484 0.638270 0.014264
0.471894 0.638270 0.030198
0.664700 0.638270 0.055077
0.826741 0.638270 0.090266
0.934387 0.638270 0.136427
0.985736 0.638270 0.193417
0.999237 0.638270 0.260279
0.077334 0.806583 0.001383
0.193417 0.806583 0.005380
0.361730 0.806583 0.014264
0.556098 0.806583 0.030198
0.739721 0.806583 0.055077
0.880187 0.806583 0.090266
0.962583 0.806583 0.136427
0.994620 0.806583 0.193417
0.999949 0.806583 0.260279
0.119813 0.922666 0.001383
0.260279 0.922666 0.005380
0.443902 0.922666 0.014264
0.638270 0.922666 0.030198
0.806583 0.922666 0.055077
0.922666 0.922666 0.090266
0.981310 0.922666 0.136427
0.998617 0.922666 0.193417
1.000000 0.922666 0.260279
0.000000 0.000763 0.018690
0.001383 0.000763 0.037417
0.018690 0.000763 0.065613
0.077334 0.000763 0.104424
0.193417 0.000763 0.154251
0.361730 0.000763 0.214677
0.556098 0.000763 0.284484
0.739721 0.000763 0.361730
0.880187 0.000763 0.443902
0.000051 0.014264 0.018690
0.005380 0.014264 0.037417
0.037417 0.014264 0.065613
0.119813 0.014264 0.104424
0.260279 0.014264 0.154251
0.443902 0.014264 0.214677
0.638270 0.014264 0.284484
0.806583 0.014264 0.361730
0.922666 0.014264 0.443902
0.000763 0.065613 0.018690
0.014264 0.065613 0.037417
0.065613 0.065613 0.065613
0.173259 0.065613 0.104424
0.335300 0.065613 0.154251
0.528106 0.065613 0.214677
0.715516 0.065613 0.284484
0.863573 0.065613 0.361730
0.954307 0.065613 0.443902
0.003614 0.173259 0.018690
0.030198 0.173259 0.037417
0.104424 0.173259 0.065613
0.236986 0.173259 0.104424
0.416137 0.173259 0.154251
0.611290 0.173259 0.214677
0.785323 0.173259 0.284484
0.909734 0.173259 0.361730
0.976022 0.173259 0.443902
0.010623 0.335300 0.018690
0.055077 0.335300 0.037417
0.154251 0.335300 0.065613
0.309520 0.335300 0.104424
0.500000 0.335300 0.154251
0.690480 0.335300 0.214677
0.845749 0.335300 0.284484
0.944923 0.335300 0.361730
0.989377 0.335300 0.443902
0.023978 0.528106 0.018690
0.090266 0.528106 0.037417
0.214677 0.528106 0.065613
0.388710 0.528106 0.104424
0.583863 0.528106 0.154251
0.763014 0.528106 0.214677
0.895576 0.528106 0.284484
0.969802 0.528106 0.361730
0.996386 0.528106 0.443902
0.045693 0.715516 0.018690
0.136427 0.715516 0.037417
0.284484 0.715516 0.065613
0.471894 0.715516 0.104424
0.664700 0.715516 0.154251
0.826741 0.715516 0.214677
0.934387 0.715516 0.284484
0.985736 0.715516 0.361730
0.999237 0.715516 0.443902
0.077334 0.863573 0.018690
0.193417 0.863573 0.037417
0.361730 0.863573 0.065613
0.556098 0.863573 0.104424
0.739721 0.863573 0.154251
0.880187 0.863573 0.214677
0.962583 0.863573 0.284484
0.994620 0.863573 0.361730
0.999949 0.863573 0.443902
0.119813 0.954307 0.018690
0.260279 0.954307 0.037417
0.443902 0.954307 0.065613
0.638270 0.954307 0.104424
0.806583 0.954307 0.154251
0.922666 0.954307 0.214677
0.981310 0.954307 0.284484
0.998617 0.954307 0.361730
1.000000 0.954307 0.443902
0.000000 0.003614 0.077334
0.001383 0.003614 0.119813
0.018690 0.003614 0.173259
0.077334 0.003614 0.236986
0.193417 0.003614 0.309520
0.361730 0.003614 0.388710
0.556098 0.003614 0.471894
0.739721 0.003614 0.556098
0.880187 0.003614 0.638270
0.000051 0.030198 0.077334
0.005380 0.030198 0.119813
0.037417 0.030198 0.173259
0.119813 0.030198 0.236986
0.260279 0.030198 0.309520
0.443902 0.030198 0.388710
0.638270 0.030198 0.471894
0.806583 0.030198 0.556098
0.922666 0.030198 0.638270
0.000763 0.104424 0.077334
0.014264 0.104424 0.119813
0.065613 0.104424 0.173259
0.173259 0.104424 0.236986
0.335300 0.104424 0.309520
0.528106 0.104424 0.388710
0.715516 0.104424 0.471894
0.863573 0.104424 0.556098
0.954307 0.104424 0.638270
0.003614 0.236986 0.077334
0.030198 0.236986 0.119813
0.104424 0.236986 0.173259
0.236986 0.236986 0.236986
0.416137 0.236986 0.309520
0.611290 0.236986 0.388710
0.785323 0.236986 0.471894
0.909734 0.236986 0.556098
0.976022 0.236986 0.638270
0.010623 0.416137 0.077334
0.055077 0.416137 0.119813
0.154251 0.416137 0.173259
0.309520 0.416137 0.236986
0.500000 0.416137 0.309520
0.690480 0.416137 0.388710
0.845749 0.416137 0.471894
0.944923 0.416137 0.556098
0.989377 0.416137 0.638270
0.023978 0.611290 0.077334
0.090266 0.611290 0.119813
0.214677 0.611290 0.173259
0.388710 0.611290 0.236986
0.583863 0.611290 0.309520
0.763014 0.611290 0.388710
0.895576 0.611290 0.471894
0.969802 0.611290 0.556098
0.996386 0.611290 0.638270
0.045693 0.785323 0.077334
0.136427 0.785323 0.119813
0.284484 0.785323 0.173259
0.471894 0.785323 0.236986
0.664700 0.785323 0.309520
0.826741 0.785323 0.388710
0.934387 0.785323 0.471894
0.985736 0.785323 0.556098
0.999237 0.785323 0.638270
0.077334 0.909734 0.077334
0.193417 0.909734 0.119813
0.361730 0.909734 0.173259
0.556098 0.909734 0.236986
0.739721 0.909734 0.309520
0.880187 0.909734 0.388710
0.962583 0.909734 0.471894
0.994620 0.909734 0.556098
0.999949 0.909734 0.638270
0.119813 0.976022 0.077334
0.260279 0.976022 0.119813
0.443902 0.976022 0.173259
0.638270 0.976022 0.236986
0.806583 0.976022 0.309520
0.922666 0.976022 0.388710
0.981310 0.976022 0.471894
0.998617 0.976022 0.556098
1.000000 0.976022 0.638270
0.000000 0.010623 0.193417
0.001383 0.010623 0.260279
0.018690 0.010623 0.335300
0.077334 0.010623 0.416137
0.193417 0.010623 0.500000
0.361730 0.010623 0.583863
0.556098 0.010623 0.664700
0.739721 0.010623 0.739721
0.880187 0.010623 0.806583
0.000051 0.055077 0.193417
0.005380 0.055077 0.260279
0.037417 0.055077 0.335300
0.119813 0.055077 0.416137
0.260279 0.055077 0.500000
0.443902 0.055077 0.583863
0.638270 0.055077 0.664700
0.806583 0.055077 0.739721
0.922666 0.055077 0.806583
0.000763 0.154251 0.193417
0.014264 0.154251 0.260279
0.065613 0.154251 0.335300
0.173259 0.154251 0.416137
0.335300 0.154251 0.500000
0.528106 0.154251 0.583863
0.715516 0.154251 0.664700
0.863573 0.154251 0.739721
0.954307 0.154251 0.806583
0.003614 0.309520 0.193417
0.030198 0.309520 0.260279
0.104424 0.309520 0.335300
0.236986 0.309520 0.416137
0.416137 0.309520 0.500000
0.611290 0.309520 0.583863
0.785323 0.309520 0.664700
0.909734 0.309520 0.739721
0.976022 0.309520 0.806583
0.010623 0.500000 0.193417
0.055077 0.500000 0.260279
0.154251 0.500000 0.335300
0.309520 0.500000 0.416137
0.500000 0.500000 0.500000
0.690480 0.500000 0.583863
0.845749 0.500000 0.664700
0.944923 0.500000 0.739721
0.989377 0.500000 0.806583
0.023978 0.690480 0.193417
0.090266 0.690480 0.260279
0.214677 0.690480 0.335300
0.388710 0.690480 0.416137
0.583863 0.690480 0.500000
0.763014 0.690480 0.583863
0.895576 0.690480 0.664700
0.969802 0.690480 0.739721
0.996386 0.690480 0.806583
0.045693 0.845749 0.193417
0.136427 0.845749 0.260279
0.284484 0.845749 0.335300
0.471894 0.845749 0.416137
0.664700 0.845749 0.500000
0.826741 0.845749 0.583863
0.934387 0.845749 0.664700
0.985736 0.845749 0.739721
0.999237 0.845749 0.806583
0.077334 0.944923 0.193417
0.193417 0.944923 0.260279
0.361730 0.944923 0.335300
0.556098 0.944923 0.416137
0.739721 0.944923 0.500000
0.880187 0.944923 0.583863
0.962583 0.944923 0.664700
0.994620 0.944923 0.739721
0.999949 0.944923 0.806583
0.119813 0.989377 0.193417
0.260279 0.989377 0.260279
0.443902 0.989377 0.335300
0.638270 0.989377 0.416137
0.806583 0.989377 0.500000
0.922666 0.989377 0.583863
0.981310 0.989377 0.664700
0.998617 0.989377 0.739721
1.000000 0.989377 0.806583
0.000000 0.023978 0.361730
0.001383 0.023978 0.443902
0.018690 0.023978 0.528106
0.077334 0.023978 0.611290
0.193417 0.023978 0.690480
0.361730 0.023978 0.763014
0.556098 0.023978 0.826741
0.739721 0.023978 0.880187
0.880187 0.023978 0.922666
0.000051 0.090266 0.361730
0.005380 0.090266 0.443902
0.037417 0.090266 0.528106
0.119813 0.090266 0.611290
0.260279 0.090266 0.690480
0.443902 0.090266 0.763014
0.638270 0.090266 0.826741
0.806583 0.090266 0.880187
0.922666 0.090266 0.922666
0.000763 0.214677 0.361730
0.014264 0.214677 0.443902
0.065613 0.214677 0.528106
0.173259 0.214677 0.611290
0.335300 0.214677 0.690480
0.528106 0.214677 0.763014
0.715516 0.214677 0.826741
0.863573 0.214677 0.880187
0.954307 0.214677 0.922666
0.003614 0.388710 0.361730
0.030198 0.388710 0.443902
0.104424 0.388710 0.528106
0.236986 0.388710 0.611290
0.416137 0.388710 0.690480
0.611290 0.388710 0.763014
0.785323 0.388710 0.826741
0.909734 0.388710 0.880187
0.976022 0.388710 0.922666
0.010623 0.583863 0.361730
0.055077 0.583863 0.443902
0.154251 0.583863 0.528106
0.309520 0.583863 0.611290
0.500000 0.583863 0.690480
0.690480 0.583863 0.763014
0.845749 0.583863 0.826741
0.944923 0.583863 0.880187
0.989377 0.583863 0.922666
0.023978 0.763014 0.361730
0.090266 0.763014 0.443902
0.214677 0.763014 0.528106
0.388710 0.763014 0.611290
0.583863 0.763014 0.690480
0.763014 0.763014 0.763014
0.895576 0.763014 0.826741
0.969802 0.763014 0.880187
0.996386 0.763014 0.922666
0.045693 0.895576 0.361730
0.136427 0.895576 0.443902
0.284484 0.895576 0.528106
0.471894 0.895576 0.611290
0.664700 0.895576 0.690480
0.826741 0.895576 0.763014
0.934387 0.895576 0.826741
0.985736 0.895576 0.880187
0.999237 0.895576 0.922666
0.077334 0.969802 0.361730
0.193417 0.969802 0.443902
0.361730 0.969802 0.528106
0.556098 0.969802 0.611290
0.739721 0.969802 0.690480
0.880187 0.969802 0.763014
0.962583 0.969802 0.826741
0.994620 0.969802 0.880187
0.999949 0.969802 0.922666
0.119813 0.996386 0.361730
0.260279 0.996386 0.443902
0.443902 0.996386 0.528106
0.638270 0.996386 0.611290
0.806583 0.996386 0.690480
0.922666 0.996386 0.763014
0.981310 0.996386 0.826741
0.998617 0.996386 0.880187
1.000000 0.996386 0.922666
0.000000 0.045693 0.556098
0.001383 0.045693 0.638270
0.018690 0.045693 0.715516
0.077334 0.045693 0.785323
0.193417 0.045693 0.845749
0.361730 0.045693 0.895576
0.556098 0.045693 0.934387
0.739721 0.045693 0.962583
0.880187 0.045693 0.981310
0.000051 0.136427 0.556098
0.005380 0.136427 0.638270
0.037417 0.136427 0.715516
0.119813 0.136427 0.785323
0.260279 0.136427 0.845749
0.443902 0.136427 0.895576
0.638270 0.136427 0.934387
0.806583 0.136427 0.962583
0.922666 0.136427 0.981310
0.000763 0.284484 0.556098
0.014264 0.284484 0.638270
0.065613 0.284484 0.715516
0.173259 0.284484 0.785323
0.335300 0.284484 0.845749
0.528106 0.284484 0.895576
0.715516 0.284484 0.934387
0.863573 0.284484 0.962583
0.954307 0.284484 0.981310
0.003614 0.471894 0.556098
0.030198 0.471894 0.638270
0.104424 0.471894 0.715516
0.236986 0.471894 0.785323
0.416137 0.471894 0.845749
0.611290 0.471894 0.895576
0.785323 0.471894 0.934387
0.909734 0.471894 0.962583
0.976022 0.471894 0.981310
0.010623 0.664700 0.556098
0.055077 0.664700 0.638270
0.154251 0.664700 0.715516
0.309520 0.664700 0.785323
0.500000 0.664700 0.845749
0.690480 0.664700 0.895576
0.845749 0.664700 0.934387
0.944923 0.664700 0.962583
0.989377 0.664700 0.981310
0.023978 0.826741 0.556098
0.090266 0.826741 0.638270
0.214677 0.826741 0.715516
0.388710 0.826741 0.785323
0.583863 0.826741 0.845749
0.763014 0.826741 0.895576
0.895576 0.826741 0.934387
0.969802 0.826741 0.962583
0.996386 0.826741 0.981310
0.045693 0.934387 0.556098
0.136427 0.934387 0.638270
0.284484 0.934387 0.715516
0.471894 0.934387 0.785323
0.664700 0.934387 0.845749
0.826741 0.934387 0.895576
0.934387 0.934387 0.934387
0.985736 0.934387 0.962583
0.999237 0.934387 0.981310
0.077334 0.985736 0.556098
0.193417 0.985736 0.638270
0.361730 0.985736 0.715516
0.556098 0.985736 0.785323
0.739721 0.985736 0.845749
0.880187 0.985736 0.895576
0.962583 0.985736 0.934387
0.994620 0.985736 0.962583
0.999949 0.985736 0.981310
0.119813 0.999237 0.556098
0.260279 0.999237 0.638270
0.443902 0.999237 0.715516
0.638270 0.999237 0.785323
0.806583 0.999237 0.845749
0.922666 0.999237 0.895576
0.981310 0.999237 0.934387
0.998617 0.999237 0.962583
1.000000 0.999237 0.981310
0.000000 0.077334 0.739721
0.001383 0.077334 0.806583
0.018690 0.077334 0.863573
0.077334 0.077334 0.909734
0.193417 0.077334 0.944923
0.361730 0.077334 0.969802
0.556098 0.077334 0.985736
0.739721 0.077334 0.994620
0.880187 0.077334 0.998617
0.000051 0.193417 0.739721
0.005380 0.193417 0.806583
0.037417 0.193417 0.863573
0.119813 0.193417 0.909734
0.260279 0.193417 0.944923
0.443902 0.193417 0.969802
0.638270 0.193417 0.985736
0.806583 0.193417 0.994620
0.922666 0.193417 0.998617
0.000763 0.361730 0.739721
0.014264 0.361730 0.806583
0.065613 0.361730 0.863573
0.173259 0.361730 0.909734
0.335300 0.361730 0.944923
0.528106 0.361730 0.969802
0.715516 0.361730 0.985736
0.863573 0.361730 0.994620
0.954307 0.361730 0.998617
0.003614 0.556098 0.739721
0.030198 0.556098 0.806583
0.104424 0.556098 0.863573
0.236986 0.556098 0.909734
0.416137 0.556098 0.944923
0.611290 0.556098 0.969802
0.785323 0.556098 0.985736
0.909734 0.556098 0.994620
0.976022 0.556098 0.998617
0.010623 0.739721 0.739721
0.055077 0.739721 0.806583
0.154251 0.739721 0.863573
0.309520 0.739721 0.909734
0.500000 0.739721 0.944923
0.690480 0.739721 0.969802
0.845749 0.739721 0.985736
0.944923 0.739721 0.994620
0.989377 0.739721 0.998617
0.023978 0.880187 0.739721
0.090266 0.880187 0.806583
0.214677 0.880187 0.863573
0.388710 0.880187 0.909734
0.583863 0.880187 0.944923
0.763014 0.880187 0.969802
0.895576 0.880187 0.985736
0.969802 0.880187 0.994620
0.996386 0.880187 0.998617
0.045693 0.962583 0.739721
0.136427 0.962583 0.806583
0.284484 0.962583 0.863573
0.471894 0.962583 0.909734
0.664700 0.962583 0.944923
0.826741 0.962583 0.969802
0.934387 0.962583 0.985736
0.985736 0.962583 0.994620
0.999237 0.962583 0.998617
0.077334 0.994620 0.739721
0.193417 0.994620 0.806583
0.361730 0.994620 0.863573
0.556098 0.994620 0.909734
0.739721 0.994620 0.944923
0.880187 0.994620 0.969802
0.962583 0.994620 0.985736
0.994620 0.994620 0.994620
0.999949 0.994620 0.998617
0.119813 0.999949 0.739721
0.260279 0.999949 0.806583
0.443902 0.999949 0.863573
0.638270 0.999949 0.909734
0.806583 0.999949 0.944923
0.922666 0.999949 0.969802
0.981310 0.999949 0.985736
0.998617 0.999949 0.994620
1.000000 0.999949 0.998617
0.000000 0.119813 0.880187
0.001383 0.119813 0.922666
0.018690 0.119813 0.954307
0.077334 0.119813 0.976022
0.193417 0.119813 0.989377
0.361730 0.119813 0.996386
0.556098 0.119813 0.999237
0.739721 0.119813 0.999949
0.880187 0.119813 1.000000
0.000051 0.260279 0.880187
0.005380 0.260279 0.922666
0.037417 0.260279 0.954307
0.119813 0.260279 0.976022
0.260279 0.260279 0.989377
0.443902 0.260279 0.996386
0.638270 0.260279 0.999237
0.806583 0.260279 0.999949
0.922666 0.260279 1.000000
0.000763 0.443902 0.880187
0.014264 0.443902 0.922666
0.065613 0.443902 0.954307
0.173259 0.443902 0.976022
0.335300 0.443902 0.989377
0.528106 0.443902 0.996386
0.715516 0.443902 0.999237
0.863573 0.443902 0.999949
0.954307 0.443902 1.000000
0.003614 0.638270 0.880187
0.030198 0.638270 0.922666
0.104424 0.638270 0.954307
0.236986 0.638270 0.976022
0.416137 0.638270 0.989377
0.611290 0.638270 0.996386
0.785323 0.638270 0.999237
0.909734 0.638270 0.999949
0.976022 0.638270 1.000000
0.010623 0.806583 0.880187
0.055077 0.806583 0.922666
0.154251 0.806583 0.954307
0.309520 0.806583 0.976022
0.500000 0.806583 0.989377
0.690480 0.806583 0.996386
0.845749 0.806583 0.999237
0.944923 0.806583 0.999949
0.989377 0.806583 1.000000
0.023978 0.922666 0.880187
0.090266 0.922666 0.922666
0.214677 0.922666 0.954307
0.388710 0.922666 0.976022
0.583863 0.922666 0.989377
0.763014 0.922666 0.996386
0.895576 0.922666 0.999237
0.969802 0.922666 0.999949
0.996386 0.922666 1.000000
0.045693 0.981310 0.880187
0.136427 0.981310 0.922666
0.284484 0.981310 0.954307
0.471894 0.981310 0.976022
0.664700 0.981310 0.989377
0.826741 0.981310 0.996386
0.934387 0.981310 0.999237
0.985736 0.981310 0.999949
0.999237 0.981310 1.000000
0.077334 0.998617 0.880187
0.193417 0.998617 0.922666
0.361730 0.998617 0.954307
0.556098 0.998617 0.976022
0.739721 0.998617 0.989377
0.880187 0.998617 0.996386
0.962583 0.998617 0.999237
0.994620 0.998617 0.999949
0.999949 0.998617 1.000000
0.119813 1.000000 0.880187
0.260279 1.000000 0.922666
0.443902 1.000000 0.954307
0.638270 1.000000 0.976022
0.806583 1.000000 0.989377
0.922666 1.000000 0.996386
0.981310 1.000000 0.999237
0.998617 1.000000 0.999949
1.000000 1.000000 1.000000
