assets/lut/lut_neutral.cube
TITLE "cetra neutral-axis probe"
LUT_3D_SIZE 9
DOMAIN_MIN 0.0 0.0 0.0
DOMAIN_MAX 1.0 1.0 1.0

0.000000 0.000000 0.000000
0.125000 0.000000 0.000000
0.250000 0.000000 0.000000
0.375000 0.000000 0.000000
0.500000 0.000000 0.000000
0.625000 0.000000 0.000000
0.750000 0.000000 0.000000
0.875000 0.000000 0.000000
1.000000 0.000000 0.000000
0.062500 0.125000 0.000000
0.179688 0.125000 0.000000
0.296875 0.125000 0.000000
0.414062 0.125000 0.000000
0.531250 0.125000 0.000000
0.648438 0.125000 0.000000
0.765625 0.125000 0.000000
0.882812 0.125000 0.000000
1.000000 0.125000 0.000000
0.250000 0.250000 0.000000
0.343750 0.250000 0.000000
0.437500 0.250000 0.000000
0.531250 0.250000 0.000000
0.625000 0.250000 0.000000
0.718750 0.250000 0.000000
0.812500 0.250000 0.000000
0.906250 0.250000 0.000000
1.000000 0.250000 0.000000
0.562500 0.375000 0.000000
0.617188 0.375000 0.000000
0.671875 0.375000 0.000000
0.726562 0.375000 0.000000
0.781250 0.375000 0.000000
0.835938 0.375000 0.000000
0.890625 0.375000 0.000000
0.945312 0.375000 0.000000
1.000000 0.375000 0.000000
1.000000 0.500000 0.000000
1.000000 0.500000 0.000000
1.000000 0.500000 0.000000
1.000000 0.500000 0.000000
1.000000 0.500000 0.000000
1.000000 0.500000 0.000000
1.000000 0.500000 0.000000
1.000000 0.500000 0.000000
1.000000 0.500000 0.000000
1.000000 0.625000 0.000000
1.000000 0.625000 0.000000
1.000000 0.625000 0.000000
1.000000 0.625000 0.000000
1.000000 0.625000 0.000000
1.000000 0.625000 0.000000
1.000000 0.625000 0.000000
1.000000 0.625000 0.000000
1.000000 0.625000 0.000000
1.000000 0.750000 0.000000
1.000000 0.750000 0.000000
1.000000 0.750000 0.000000
1.000000 0.750000 0.000000
1.000000 0.750000 0.000000
1.000000 0.750000 0.000000
1.000000 0.750000 0.000000
1.000000 0.750000 0.000000
1.000000 0.750000 0.000000
1.000000 0.875000 0.000000
1.000000 0.875000 0.000000
1.000000 0.875000 0.000000
1.000000 0.875000 0.000000
1.000000 0.875000 0.000000
1.000000 0.875000 0.000000
1.000000 0.875000 0.000000
1.000000 0.875000 0.000000
1.000000 0.875000 0.000000
1.000000 1.000000 0.000000
1.000000 1.000000 0.000000
1.000000 1.000000 0.000000
1.000000 1.000000 0.000000
1.000000 1.000000 0.000000
1.000000 1.000000 0.000000
1.000000 1.000000 0.000000
1.000000 1.000000 0.000000
1.000000 1.000000 0.000000
0.062500 0.000000 0.125000
0.179688 0.000000 0.125000
0.296875 0.000000 0.125000
0.414062 0.000000 0.125000
0.531250 0.000000 0.125000
0.648438 0.000000 0.125000
0.765625 0.000000 0.125000
0.882812 0.000000 0.125000
1.000000 0.000000 0.125000
0.000000 0.125000 0.125000
0.125000 0.125000 0.125000
0.250000 0.125000 0.125000
0.375000 0.125000 0.125000
0.500000 0.125000 0.125000
0.625000 0.125000 0.125000
0.750000 0.125000 0.125000
0.875000 0.125000 0.125000
1.000000 0.125000 0.125000
0.062500 0.250000 0.125000
0.179688 0.250000 0.125000
0.296875 0.250000 0.125000
0.414062 0.250000 0.125000
0.531250 0.250000 0.125000
0.648438 0.250000 0.125000
0.765625 0.250000 0.125000
0.882812 0.250000 0.125000
1.000000 0.250000 0.125000
0.250000 0.375000 0.125000
0.343750 0.375000 0.125000
0.437500 0.375000 0.125000
0.531250 0.375000 0.125000
0.625000 0.375000 0.125000
0.718750 0.375000 0.125000
0.812500 0.375000 0.125000
0.906250 0.375000 0.125000
1.000000 0.375000 0.125000
0.562500 0.500000 0.125000
0.617188 0.500000 0.125000
0.671875 0.500000 0.125000
0.726562 0.500000 0.125000
0.781250 0.500000 0.125000
0.835938 0.500000 0.125000
0.890625 0.500000 0.125000
0.945312 0.500000 0.125000
1.000000 0.500000 0.125000
1.000000 0.625000 0.125000
1.000000 0.625000 0.125000
1.000000 0.625000 0.125000
1.000000 0.625000 0.125000
1.000000 0.625000 0.125000
1.000000 0.625000 0.125000
1.000000 0.625000 0.125000
1.000000 0.625000 0.125000
1.000000 0.625000 0.125000
1.000000 0.750000 0.125000
1.000000 0.750000 0.125000
1.000000 0.750000 0.125000
1.000000 0.750000 0.125000
1.000000 0.750000 0.125000
1.000000 0.750000 0.125000
1.000000 0.750000 0.125000
1.000000 0.750000 0.125000
1.000000 0.750000 0.125000
1.000000 0.875000 0.125000
1.000000 0.875000 0.125000
1.000000 0.875000 0.125000
1.000000 0.875000 0.125000
1.000000 0.875000 0.125000
1.000000 0.875000 0.125000
1.000000 0.875000 0.125000
1.000000 0.875000 0.125000
1.000000 0.875000 0.125000
1.000000 1.000000 0.125000
1.000000 1.000000 0.125000
1.000000 1.000000 0.125000
1.000000 1.000000 0.125000
1.000000 1.000000 0.125000
1.000000 1.000000 0.125000
1.000000 1.000000 0.125000
1.000000 1.000000 0.125000
1.000000 1.000000 0.125000
0.250000 0.000000 0.250000
0.343750 0.000000 0.250000
0.437500 0.000000 0.250000
0.531250 0.000000 0.250000
0.625000 0.000000 0.250000
0.718750 0.000000 0.250000
0.812500 0.000000 0.250000
0.906250 0.000000 0.250000
1.000000 0.000000 0.250000
0.062500 0.125000 0.250000
0.179688 0.125000 0.250000
0.296875 0.125000 0.250000
0.414062 0.125000 0.250000
0.531250 0.125000 0.250000
0.648438 0.125000 0.250000
0.765625 0.125000 0.250000
0.882812 0.125000 0.250000
1.000000 0.125000 0.250000
0.000000 0.250000 0.250000
0.125000 0.250000 0.250000
0.250000 0.250000 0.250000
0.375000 0.250000 0.250000
0.500000 0.250000 0.250000
0.625000 0.250000 0.250000
0.750000 0.250000 0.250000
0.875000 0.250000 0.250000
1.000000 0.250000 0.250000
0.062500 0.375000 0.250000
0.179688 0.375000 0.250000
0.296875 0.375000 0.250000
0.414062 0.375000 0.250000
0.531250 0.375000 0.250000
0.648438 0.375000 0.250000
0.765625 0.375000 0.250000
0.882812 0.375000 0.250000
1.000000 0.375000 0.250000
0.250000 0.500000 0.250000
0.343750 0.500000 0.250000
0.437500 0.500000 0.250000
0.531250 0.500000 0.250000
0.625000 0.500000 0.250000
0.718750 0.500000 0.250000
0.812500 0.500000 0.250000
0.906250 0.500000 0.250000
1.000000 0.500000 0.250000
0.562500 0.625000 0.250000
0.617188 0.625000 0.250000
0.671875 0.625000 0.250000
0.726562 0.625000 0.250000
0.781250 0.625000 0.250000
0.835938 0.625000 0.250000
0.890625 0.625000 0.250000
0.945312 0.625000 0.250000
1.000000 0.625000 0.250000
1.000000 0.750000 0.250000
1.000000 0.750000 0.250000
1.000000 0.750000 0.250000
1.000000 0.750000 0.250000
1.000000 0.750000 0.250000
1.000000 0.750000 0.250000
1.000000 0.750000 0.250000
1.000000 0.750000 0.250000
1.000000 0.750000 0.250000
1.000000 0.875000 0.250000
1.000000 0.875000 0.250000
1.000000 0.875000 0.250000
1.000000 0.875000 0.250000
1.000000 0.875000 0.250000
1.000000 0.875000 0.250000
1.000000 0.875000 0.250000
1.000000 0.875000 0.250000
1.000000 0.875000 0.250000
1.000000 1.000000 0.250000
1.000000 1.000000 0.250000
1.000000 1.000000 0.250000
1.000000 1.000000 0.250000
1.000000 1.000000 0.250000
1.000000 1.000000 0.250000
1.000000 1.000000 0.250000
1.000000 1.000000 0.250000
1.000000 1.000000 0.250000
0.562500 0.000000 0.375000
0.617188 0.000000 0.375000
0.671875 0.000000 0.375000
0.726562 0.000000 0.375000
0.781250 0.000000 0.375000
0.835938 0.000000 0.375000
0.890625 0.000000 0.375000
0.945312 0.000000 0.375000
1.000000 0.000000 0.375000
0.250000 0.125000 0.375000
0.343750 0.125000 0.375000
0.437500 0.125000 0.375000
0.531250 0.125000 0.375000
0.625000 0.125000 0.375000
0.718750 0.125000 0.375000
0.812500 0.125000 0.375000
0.906250 0.125000 0.375000
1.000000 0.125000 0.375000
0.062500 0.250000 0.375000
0.179688 0.250000 0.375000
0.296875 0.250000 0.375000
0.414062 0.250000 0.375000
0.531250 0.250000 0.375000
0.648438 0.250000 0.375000
0.765625 0.250000 0.375000
0.882812 0.250000 0.375000
1.000000 0.250000 0.375000
0.000000 0.375000 0.375000
0.125000 0.375000 0.375000
0.250000 0.375000 0.375000
0.375000 0.375000 0.375000
0.500000 0.375000 0.375000
0.625000 0.375000 0.375000
0.750000 0.375000 0.375000
0.875000 0.375000 0.375000
1.000000 0.375000 0.375000
0.062500 0.500000 0.375000
0.179688 0.500000 0.375000
0.296875 0.500000 0.375000
0.414062 0.500000 0.375000
0.531250 0.500000 0.375000
0.648438 0.500000 0.375000
0.765625 0.500000 0.375000
0.882812 0.500000 0.375000
1.000000 0.500000 0.375000
0.250000 0.625000 0.375000
0.343750 0.625000 0.375000
0.437500 0.625000 0.375000
0.531250 0.625000 0.375000
0.625000 0.625000 0.375000
0.718750 0.625000 0.375000
0.812500 0.625000 0.375000
0.906250 0.625000 0.375000
1.000000 0.625000 0.375000
0.562500 0.750000 0.375000
0.617188 0.750000 0.375000
0.671875 0.750000 0.375000
0.726562 0.750000 0.375000
0.781250 0.750000 0.375000
0.835938 0.750000 0.375000
0.890625 0.750000 0.375000
0.945312 0.750000 0.375000
1.000000 0.750000 0.375000
1.000000 0.875000 0.375000
1.000000 0.875000 0.375000
1.000000 0.875000 0.375000
1.000000 0.875000 0.375000
1.000000 0.875000 0.375000
1.000000 0.875000 0.375000
1.000000 0.875000 0.375000
1.000000 0.875000 0.375000
1.000000 0.875000 0.375000
1.000000 1.000000 0.375000
1.000000 1.000000 0.375000
1.000000 1.000000 0.375000
1.000000 1.000000 0.375000
1.000000 1.000000 0.375000
1.000000 1.000000 0.375000
1.000000 1.000000 0.375000
1.000000 1.000000 0.375000
1.000000 1.000000 0.375000
1.000000 0.000000 0.500000
1.000000 0.000000 0.500000
1.000000 0.000000 0.500000
1.000000 0.000000 0.500000
1.000000 0.000000 0.500000
1.000000 0.000000 0.500000
1.000000 0.000000 0.500000
1.000000 0.000000 0.500000
1.000000 0.000000 0.500000
0.562500 0.125000 0.500000
0.617188 0.125000 0.500000
0.671875 0.125000 0.500000
0.726562 0.125000 0.500000
0.781250 0.125000 0.500000
0.835938 0.125000 0.500000
0.890625 0.125000 0.500000
0.945312 0.125000 0.500000
1.000000 0.125000 0.500000
0.250000 0.250000 0.500000
0.343750 0.250000 0.500000
0.437500 0.250000 0.500000
0.531250 0.250000 0.500000
0.625000 0.250000 0.500000
0.718750 0.250000 0.500000
0.812500 0.250000 0.500000
0.906250 0.250000 0.500000
1.000000 0.250000 0.500000
0.062500 0.375000 0.500000
0.179688 0.375000 0.500000
0.296875 0.375000 0.500000
0.414062 0.375000 0.500000
0.531250 0.375000 0.500000
0.648438 0.375000 0.500000
0.765625 0.375000 0.500000
0.882812 0.375000 0.500000
1.000000 0.375000 0.500000
0.000000 0.500000 0.500000
0.125000 0.500000 0.500000
0.250000 0.500000 0.500000
0.375000 0.500000 0.500000
0.500000 0.500000 0.500000
0.625000 0.500000 0.500000
0.750000 0.500000 0.500000
0.875000 0.500000 0.500000
1.000000 0.500000 0.500000
0.062500 0.625000 0.500000
0.179688 0.625000 0.500000
0.296875 0.625000 0.500000
0.414062 0.625000 0.500000
0.531250 0.625000 0.500000
0.648438 0.625000 0.500000
0.765625 0.625000 0.500000
0.882812 0.625000 0.500000
1.000000 0.625000 0.500000
0.250000 0.750000 0.500000
0.343750 0.750000 0.500000
0.437500 0.750000 0.500000
0.531250 0.750000 0.500000
0.625000 0.750000 0.500000
0.718750 0.750000 0.500000
0.812500 0.750000 0.500000
0.906250 0.750000 0.500000
1.000000 0.750000 0.500000
0.562500 0.875000 0.500000
0.617188 0.875000 0.500000
0.671875 0.875000 0.500000
0.726562 0.875000 0.500000
0.781250 0.875000 0.500000
0.835938 0.875000 0.500000
0.890625 0.875000 0.500000
0.945312 0.875000 0.500000
1.000000 0.875000 0.500000
1.000000 1.000000 0.500000
1.000000 1.000000 0.500000
1.000000 1.000000 0.500000
1.000000 1.000000 0.500000
1.000000 1.000000 0.500000
1.000000 1.000000 0.500000
1.000000 1.000000 0.500000
1.000000 1.000000 0.500000
1.000000 1.000000 0.500000
1.000000 0.000000 0.625000
1.000000 0.000000 0.625000
1.000000 0.000000 0.625000
1.000000 0.000000 0.625000
1.000000 0.000000 0.625000
1.000000 0.000000 0.625000
1.000000 0.000000 0.625000
1.000000 0.000000 0.625000
1.000000 0.000000 0.625000
1.000000 0.125000 0.625000
1.000000 0.125000 0.625000
1.000000 0.125000 0.625000
1.000000 0.125000 0.625000
1.000000 0.125000 0.625000
1.000000 0.125000 0.625000
1.000000 0.125000 0.625000
1.000000 0.125000 0.625000
1.000000 0.125000 0.625000
0.562500 0.250000 0.625000
0.617188 0.250000 0.625000
0.671875 0.250000 0.625000
0.726562 0.250000 0.625000
0.781250 0.250000 0.625000
0.835938 0.250000 0.625000
0.890625 0.250000 0.625000
0.945312 0.250000 0.625000
1.000000 0.250000 0.625000
0.250000 0.375000 0.625000
0.343750 0.375000 0.625000
0.437500 0.375000 0.625000
0.531250 0.375000 0.625000
0.625000 0.375000 0.625000
0.718750 0.375000 0.625000
0.812500 0.375000 0.625000
0.906250 0.375000 0.625000
1.000000 0.375000 0.625000
0.062500 0.500000 0.625000
0.179688 0.500000 0.625000
0.296875 0.500000 0.625000
0.414062 0.500000 0.625000
0.531250 0.500000 0.625000
0.648438 0.500000 0.625000
0.765625 0.500000 0.625000
0.882812 0.500000 0.625000
1.000000 0.500000 0.625000
0.000000 0.625000 0.625000
0.125000 0.625000 0.625000
0.250000 0.625000 0.625000
0.375000 0.625000 0.625000
0.500000 0.625000 0.625000
0.625000 0.625000 0.625000
0.750000 0.625000 0.625000
0.875000 0.625000 0.625000
1.000000 0.625000 0.625000
0.062500 0.750000 0.625000
0.179688 0.750000 0.625000
0.296875 0.750000 0.625000
0.414062 0.750000 0.625000
0.531250 0.750000 0.625000
0.648438 0.750000 0.625000
0.765625 0.750000 0.625000
0.882812 0.750000 0.625000
1.000000 0.750000 0.625000
0.250000 0.875000 0.625000
0.343750 0.875000 0.625000
0.437500 0.875000 0.625000
0.531250 0.875000 0.625000
0.625000 0.875000 0.625000
0.718750 0.875000 0.625000
0.812500 0.875000 0.625000
0.906250 0.875000 0.625000
1.000000 0.875000 0.625000
0.562500 1.000000 0.625000
0.617188 1.000000 0.625000
0.671875 1.000000 0.625000
0.726562 1.000000 0.625000
0.781250 1.000000 0.625000
0.835938 1.000000 0.625000
0.890625 1.000000 0.625000
0.945312 1.000000 0.625000
1.000000 1.000000 0.625000
1.000000 0.000000 0.750000
1.000000 0.000000 0.750000
1.000000 0.000000 0.750000
1.000000 0.000000 0.750000
1.000000 0.000000 0.750000
1.000000 0.000000 0.750000
1.000000 0.000000 0.750000
1.000000 0.000000 0.750000
1.000000 0.000000 0.750000
1.000000 0.125000 0.750000
1.000000 0.125000 0.750000
1.000000 0.125000 0.750000
1.000000 0.125000 0.750000
1.000000 0.125000 0.750000
1.000000 0.125000 0.750000
1.000000 0.125000 0.750000
1.000000 0.125000 0.750000
1.000000 0.125000 0.750000
1.000000 0.250000 0.750000
1.000000 0.250000 0.750000
1.000000 0.250000 0.750000
1.000000 0.250000 0.750000
1.000000 0.250000 0.750000
1.000000 0.250000 0.750000
1.000000 0.250000 0.750000
1.000000 0.250000 0.750000
1.000000 0.250000 0.750000
0.562500 0.375000 0.750000
0.617188 0.375000 0.750000
0.671875 0.375000 0.750000
0.726562 0.375000 0.750000
0.781250 0.375000 0.750000
0.835938 0.375000 0.750000
0.890625 0.375000 0.750000
0.945312 0.375000 0.750000
1.000000 0.375000 0.750000
0.250000 0.500000 0.750000
0.343750 0.500000 0.750000
0.437500 0.500000 0.750000
0.531250 0.500000 0.750000
0.625000 0.500000 0.750000
0.718750 0.500000 0.750000
0.812500 0.500000 0.750000
0.906250 0.500000 0.750000
1.000000 0.500000 0.750000
0.062500 0.625000 0.750000
0.179688 0.625000 0.750000
0.296875 0.625000 0.750000
0.414062 0.625000 0.750000
0.531250 0.625000 0.750000
0.648438 0.625000 0.750000
0.765625 0.625000 0.750000
0.882812 0.625000 0.750000
1.000000 0.625000 0.750000
0.000000 0.750000 0.750000
0.125000 0.750000 0.750000
0.250000 0.750000 0.750000
0.375000 0.750000 0.750000
0.500000 0.750000 0.750000
0.625000 0.750000 0.750000
0.750000 0.750000 0.750000
0.875000 0.750000 0.750000
1.000000 0.750000 0.750000
0.062500 0.875000 0.750000
0.179688 0.875000 0.750000
0.296875 0.875000 0.750000
0.414062 0.875000 0.750000
0.531250 0.875000 0.750000
0.648438 0.875000 0.750000
0.765625 0.875000 0.750000
0.882812 0.875000 0.750000
1.000000 0.875000 0.750000
0.250000 1.000000 0.750000
0.343750 1.000000 0.750000
0.437500 1.000000 0.750000
0.531250 1.000000 0.750000
0.625000 1.000000 0.750000
0.718750 1.000000 0.750000
0.812500 1.000000 0.750000
0.906250 1.000000 0.750000
1.000000 1.000000 0.750000
1.000000 0.000000 0.875000
1.000000 0.000000 0.875000
1.000000 0.000000 0.875000
1.000000 0.000000 0.875000
1.000000 0.000000 0.875000
1.000000 0.000000 0.875000
1.000000 0.000000 0.875000
1.000000 0.000000 0.875000
1.000000 0.000000 0.875000
1.000000 0.125000 0.875000
1.000000 0.125000 0.875000
1.000000 0.125000 0.875000
1.000000 0.125000 0.875000
1.000000 0.125000 0.875000
1.000000 0.125000 0.875000
1.000000 0.125000 0.875000
1.000000 0.125000 0.875000
1.000000 0.125000 0.875000
1.000000 0.250000 0.875000
1.000000 0.250000 0.875000
1.000000 0.250000 0.875000
1.000000 0.250000 0.875000
1.000000 0.250000 0.875000
1.000000 0.250000 0.875000
1.000000 0.250000 0.875000
1.000000 0.250000 0.875000
1.000000 0.250000 0.875000
1.000000 0.375000 0.875000
1.000000 0.375000 0.875000
1.000000 0.375000 0.875000
1.000000 0.375000 0.875000
1.000000 0.375000 0.875000
1.000000 0.375000 0.875000
1.000000 0.375000 0.875000
1.000000 0.375000 0.875000
1.000000 0.375000 0.875000
0.562500 0.500000 0.875000
0.617188 0.500000 0.875000
0.671875 0.500000 0.875000
0.726562 0.500000 0.875000
0.781250 0.500000 0.875000
0.835938 0.500000 0.875000
0.890625 0.500000 0.875000
0.945312 0.500000 0.875000
1.000000 0.500000 0.875000
0.250000 0.625000 0.875000
0.343750 0.625000 0.875000
0.437500 0.625000 0.875000
0.531250 0.625000 0.875000
0.625000 0.625000 0.875000
0.718750 0.625000 0.875000
0.812500 0.625000 0.875000
0.906250 0.625000 0.875000
1.000000 0.625000 0.875000
0.062500 0.750000 0.875000
0.179688 0.750000 0.875000
0.296875 0.750000 0.875000
0.414062 0.750000 0.875000
0.531250 0.750000 0.875000
0.648438 0.750000 0.875000
0.765625 0.750000 0.875000
0.882812 0.750000 0.875000
1.000000 0.750000 0.875000
0.000000 0.875000 0.875000
0.125000 0.875000 0.875000
0.250000 0.875000 0.875000
0.375000 0.875000 0.875000
0.500000 0.875000 0.875000
0.625000 0.875000 0.875000
0.750000 0.875000 0.875000
0.875000 0.875000 0.875000
1.000000 0.875000 0.875000
0.062500 1.000000 0.875000
0.179688 1.000000 0.875000
0.296875 1.000000 0.875000
0.414062 1.000000 0.875000
0.531250 1.000000 0.875000
0.648438 1.000000 0.875000
0.765625 1.000000 0.875000
0.882812 1.000000 0.875000
1.000000 1.000000 0.875000
1.000000 0.000000 1.000000
1.000000 0.000000 1.000000
1.000000 0.000000 1.000000
1.000000 0.000000 1.000000
1.000000 0.000000 1.000000
1.000000 0.000000 1.000000
1.000000 0.000000 1.000000
1.000000 0.000000 1.000000
1.000000 0.000000 1.000000
1.000000 0.125000 1.000000
1.000000 0.125000 1.000000
1.000000 0.125000 1.000000
1.000000 0.125000 1.000000
1.000000 0.125000 1.000000
1.000000 0.125000 1.000000
1.000000 0.125000 1.000000
1.000000 0.125000 1.000000
1.000000 0.125000 1.000000
1.000000 0.250000 1.000000
1.000000 0.250000 1.000000
1.000000 0.250000 1.000000
1.000000 0.250000 1.000000
1.000000 0.250000 1.000000
1.000000 0.250000 1.000000
1.000000 0.250000 1.000000
1.000000 0.250000 1.000000
1.000000 0.250000 1.000000
1.000000 0.375000 1.000000
1.000000 0.375000 1.000000
1.000000 0.375000 1.000000
1.000000 0.375000 1.000000
1.000000 0.375000 1.000000
1.000000 0.375000 1.000000
1.000000 0.375000 1.000000
1.000000 0.375000 1.000000
1.000000 0.375000 1.000000
1.000000 0.500000 1.000000
1.000000 0.500000 1.000000
1.000000 0.500000 1.000000
1.000000 0.500000 1.000000
1.000000 0.500000 1.000000
1.000000 0.500000 1.000000
1.000000 0.500000 1.000000
1.000000 0.500000 1.000000
1.000000 0.500000 1.000000
0.562500 0.625000 1.000000
0.617188 0.625000 1.000000
0.671875 0.625000 1.000000
0.726562 0.625000 1.000000
0.781250 0.625000 1.000000
0.835938 0.625000 1.000000
0.890625 0.625000 1.000000
0.945312 0.625000 1.000000
1.000000 0.625000 1.000000
0.250000 0.750000 1.000000
0.343750 0.750000 1.000000
0.437500 0.750000 1.000000
0.531250 0.750000 1.000000
0.625000 0.750000 1.000000
0.718750 0.750000 1.000000
0.812500 0.750000 1.000000
0.906250 0.750000 1.000000
1.000000 0.750000 1.000000
0.062500 0.875000 1.000000
0.179688 0.875000 1.000000
0.296875 0.875000 1.000000
0.414062 0.875000 1.000000
0.531250 0.875000 1.000000
0.648438 0.875000 1.000000
0.765625 0.875000 1.000000
0.882812 0.875000 1.000000
1.000000 0.875000 1.000000
0.000000 1.000000 1.000000
0.125000 1.000000 1.000000
0.250000 1.000000 1.000000
0.375000 1.000000 1.000000
0.500000 1.000000 1.000000
0.625000 1.000000 1.000000
0.750000 1.000000 1.000000
0.875000 1.000000 1.000000
1.000000 1.000000 1.000000
