assets/lut/lut_steep.cube
TITLE "cetra steep s-curve"
LUT_3D_SIZE 5
DOMAIN_MIN 0.0 0.0 0.0
DOMAIN_MAX 1.0 1.0 1.0
0.000000 0.000000 0.000000
0.018690 0.000000 0.000763
0.193417 0.000000 0.010623
0.556098 0.000000 0.045693
0.880187 0.000000 0.119813
0.000763 0.018690 0.000000
0.065613 0.018690 0.000763
0.335300 0.018690 0.010623
0.715516 0.018690 0.045693
0.954307 0.018690 0.119813
0.010623 0.193417 0.000000
0.154251 0.193417 0.000763
0.500000 0.193417 0.010623
0.845749 0.193417 0.045693
0.989377 0.193417 0.119813
0.045693 0.556098 0.000000
0.284484 0.556098 0.000763
0.664700 0.556098 0.010623
0.934387 0.556098 0.045693
0.999237 0.556098 0.119813
0.119813 0.880187 0.000000
0.443902 0.880187 0.000763
0.806583 0.880187 0.010623
0.981310 0.880187 0.045693
1.000000 0.880187 0.119813
0.000000 0.000763 0.018690
0.018690 0.000763 0.065613
0.193417 0.000763 0.154251
0.556098 0.000763 0.284484
0.880187 0.000763 0.443902
0.000763 0.065613 0.018690
0.065613 0.065613 0.065613
0.335300 0.065613 0.154251
0.715516 0.065613 0.284484
0.954307 0.065613 0.443902
0.010623 0.335300 0.018690
0.154251 0.335300 0.065613
0.500000 0.335300 0.154251
0.845749 0.335300 0.284484
0.989377 0.335300 0.443902
0.045693 0.715516 0.018690
0.284484 0.715516 0.065613
0.664700 0.715516 0.154251
0.934387 0.715516 0.284484
0.999237 0.715516 0.443902
0.119813 0.954307 0.018690
0.443902 0.954307 0.065613
0.806583 0.954307 0.154251
0.981310 0.954307 0.284484
1.000000 0.954307 0.443902
0.000000 0.010623 0.193417
0.018690 0.010623 0.335300
0.193417 0.010623 0.500000
0.556098 0.010623 0.664700
0.880187 0.010623 0.806583
0.000763 0.154251 0.193417
0.065613 0.154251 0.335300
0.335300 0.154251 0.500000
0.715516 0.154251 0.664700
0.954307 0.154251 0.806583
0.010623 0.500000 0.193417
0.154251 0.500000 0.335300
0.500000 0.500000 0.500000
0.845749 0.500000 0.664700
0.989377 0.500000 0.806583
0.045693 0.845749 0.193417
0.284484 0.845749 0.335300
0.664700 0.845749 0.500000
0.934387 0.845749 0.664700
0.999237 0.845749 0.806583
0.119813 0.989377 0.193417
0.443902 0.989377 0.335300
0.806583 0.989377 0.500000
0.981310 0.989377 0.664700
1.000000 0.989377 0.806583
0.000000 0.045693 0.556098
0.018690 0.045693 0.715516
0.193417 0.045693 0.845749
0.556098 0.045693 0.934387
0.880187 0.045693 0.981310
0.000763 0.284484 0.556098
0.065613 0.284484 0.715516
0.335300 0.284484 0.845749
0.715516 0.284484 0.934387
0.954307 0.284484 0.981310
0.010623 0.664700 0.556098
0.154251 0.664700 0.715516
0.500000 0.664700 0.845749
0.845749 0.664700 0.934387
0.989377 0.664700 0.981310
0.045693 0.934387 0.556098
0.284484 0.934387 0.715516
0.664700 0.934387 0.845749
0.934387 0.934387 0.934387
0.999237 0.934387 0.981310
0.119813 0.999237 0.556098
0.443902 0.999237 0.715516
0.806583 0.999237 0.845749
0.981310 0.999237 0.934387
1.000000 0.999237 0.981310
0.000000 0.119813 0.880187
0.018690 0.119813 0.954307
0.193417 0.119813 0.989377
0.556098 0.119813 0.999237
0.880187 0.119813 1.000000
0.000763 0.443902 0.880187
0.065613 0.443902 0.954307
0.335300 0.443902 0.989377
0.715516 0.443902 0.999237
0.954307 0.443902 1.000000
0.010623 0.806583 0.880187
0.154251 0.806583 0.954307
0.500000 0.806583 0.989377
0.845749 0.806583 0.999237
0.989377 0.806583 1.000000
0.045693 0.981310 0.880187
0.284484 0.981310 0.954307
0.664700 0.981310 0.989377
0.934387 0.981310 0.999237
0.999237 0.981310 1.000000
0.119813 1.000000 0.880187
0.443902 1.000000 0.954307
0.806583 1.000000 0.989377
0.981310 1.000000 0.999237
1.000000 1.000000 1.000000
